LUT_fitting/LUTs/vhs_to_video8_standard_i_native_1M_random_seed2002_strength85.cube
TITLE "VHS to Video8 standard degree 2 intercept True strength 0.85"
LUT_3D_SIZE 33
DOMAIN_MIN 0.0 0.0 0.0
DOMAIN_MAX 1.0 1.0 1.0
0.06913950 0.06542036 0.07617998
0.09822727 0.06813574 0.07948902
0.12759101 0.07089038 0.08298961
0.15723069 0.07368433 0.08668179
0.18714634 0.07651754 0.09056552
0.21733795 0.07939005 0.09464084
0.24780554 0.08230184 0.09890772
0.27854905 0.08525291 0.10336617
0.30956858 0.08824328 0.10801619
0.34086400 0.09127291 0.11285777
0.37243542 0.09434184 0.11789095
0.40428281 0.09745006 0.12311567
0.43640614 0.10059755 0.12853196
0.46880543 0.10378433 0.13413984
0.50148070 0.10701039 0.13993929
0.53443193 0.11027575 0.14593029
0.56765914 0.11358039 0.15211286
0.60116225 0.11692429 0.15848702
0.63494134 0.12030749 0.16505274
0.66899639 0.12372997 0.17181003
0.70332748 0.12719175 0.17875887
0.73793441 0.13069281 0.18589932
0.77281737 0.13423315 0.19323131
0.80797631 0.13781276 0.20075488
0.84341115 0.14143169 0.20847002
0.87912196 0.14508988 0.21637674
0.91510880 0.14878735 0.22447501
0.95137155 0.15252411 0.23276486
0.98124999 0.15630016 0.24124627
0.98593748 0.16011548 0.24991927
0.99062502 0.16397010 0.25878382
0.99531251 0.16786401 0.26783997
1.00000000 0.17179717 0.27708766
0.08359193 0.10486382 0.08965369
0.11222345 0.10742547 0.09274017
0.14113092 0.11002640 0.09601822
0.17031437 0.11266661 0.09948786
0.19977379 0.11534610 0.10314905
0.22950916 0.11806488 0.10700182
0.25952050 0.12082295 0.11104616
0.28980780 0.12362029 0.11528206
0.32037106 0.12645693 0.11970954
0.35121024 0.12933284 0.12432858
0.38232544 0.13224804 0.12913920
0.41371655 0.13520253 0.13414139
0.44538367 0.13819630 0.13933514
0.47732669 0.14122936 0.14472045
0.50954568 0.14430168 0.15029737
0.54204065 0.14741331 0.15606582
0.57481158 0.15056422 0.16202585
0.60785848 0.15375441 0.16817746
0.64118129 0.15698388 0.17452064
0.67478013 0.16025263 0.18105538
0.70865500 0.16356069 0.18778169
0.74280566 0.16690803 0.19469959
0.77723241 0.17029463 0.20180903
0.81193507 0.17372052 0.20911005
0.84691364 0.17718571 0.21660265
0.88216823 0.18069017 0.22428682
0.91769886 0.18423392 0.23216254
0.95350528 0.18781696 0.24022983
0.98124999 0.19143929 0.24848871
0.98593748 0.19510089 0.25693914
0.99062502 0.19880177 0.26558119
0.99531251 0.20254195 0.27441478
1.00000000 0.20632139 0.28343993
0.09733843 0.14322273 0.10197622
0.12551370 0.14563066 0.10484016
0.15396497 0.14807785 0.10789568
0.18269214 0.15056433 0.11114275
0.21169531 0.15309009 0.11458140
0.24097443 0.15565515 0.11821161
0.27052951 0.15825948 0.12203342
0.30036053 0.16090310 0.12604676
0.33046758 0.16358602 0.13025171
0.36085054 0.16630819 0.13464820
0.39150944 0.16906968 0.13923629
0.42244434 0.17187044 0.14401591
0.45365518 0.17471048 0.14898711
0.48514202 0.17758980 0.15414990
0.51690477 0.18050842 0.15950426
0.54894352 0.18346632 0.16505018
0.58125824 0.18646351 0.17078765
0.61384887 0.18949994 0.17671673
0.64671552 0.19257569 0.18283735
0.67985803 0.19569072 0.18914956
0.71327662 0.19884504 0.19565332
0.74697113 0.20203865 0.20234868
0.78094155 0.20527153 0.20923558
0.81518799 0.20854370 0.21631406
0.84971035 0.21185516 0.22358412
0.88450867 0.21520589 0.23104572
0.91958302 0.21859589 0.23869891
0.95493329 0.22202523 0.24654369
0.98124999 0.22549380 0.25458002
0.98593748 0.22900170 0.26280791
0.99062502 0.23254886 0.27122739
0.99531251 0.23613529 0.27983841
1.00000000 0.23976102 0.28864104
0.11037901 0.18049705 0.11314759
0.13809803 0.18275124 0.11578897
0.16609304 0.18504471 0.11862195
0.19436400 0.18737748 0.12164649
0.22291091 0.18974949 0.12486260
0.25173381 0.19216082 0.12827027
0.28083265 0.19461143 0.13186952
0.31020743 0.19710132 0.13566032
0.33985820 0.19963051 0.13964272
0.36978492 0.20219898 0.14381668
0.39998761 0.20480673 0.14818221
0.43046623 0.20745376 0.15273929
0.46122086 0.21014008 0.15748796
0.49225140 0.21286568 0.16242819
0.52355796 0.21563056 0.16756003
0.55514038 0.21843472 0.17288338
0.58699888 0.22127819 0.17839831
0.61913323 0.22416091 0.18410484
0.65154362 0.22708292 0.19000292
0.68422997 0.23004423 0.19609258
0.71719229 0.23304483 0.20237380
0.75043046 0.23608468 0.20884658
0.78394473 0.23916388 0.21551093
0.81773490 0.24228229 0.22236688
0.85180098 0.24544002 0.22941439
0.88614309 0.24863704 0.23665346
0.92076117 0.25187331 0.24408409
0.95565516 0.25514889 0.25170633
0.98124999 0.25846377 0.25952011
0.98593748 0.26181793 0.26752546
0.99062502 0.26521137 0.27572238
0.99531251 0.26864403 0.28411087
1.00000000 0.27211607 0.29269093
0.12271366 0.21668682 0.12316778
0.14997645 0.21878728 0.12558663
0.17751522 0.22092703 0.12819707
0.20532992 0.22310606 0.13099904
0.23342058 0.22532433 0.13399261
0.26178721 0.22758195 0.13717774
0.29042983 0.22987881 0.14055444
0.31934834 0.23221497 0.14412270
0.34854290 0.23459043 0.14788257
0.37801337 0.23700517 0.15183395
0.40775979 0.23945919 0.15597697
0.43778220 0.24195248 0.16031149
0.46808058 0.24448508 0.16483763
0.49865487 0.24705696 0.16955531
0.52950513 0.24966812 0.17446458
0.56063133 0.25231856 0.17956540
0.59203362 0.25500831 0.18485779
0.62371176 0.25773734 0.19034176
0.65566581 0.26050562 0.19601730
0.68789595 0.26331317 0.20188443
0.72040206 0.26616004 0.20794308
0.75318402 0.26904619 0.21419337
0.78624195 0.27197164 0.22063516
0.81957591 0.27493632 0.22726855
0.85318577 0.27794033 0.23409352
0.88707161 0.28098363 0.24111004
0.92123348 0.28406620 0.24831815
0.95567119 0.28718805 0.25571781
0.98124999 0.29034919 0.26330906
0.98593748 0.29354960 0.27109188
0.99062502 0.29678932 0.27906626
0.99531251 0.30006829 0.28723219
1.00000000 0.30338657 0.29558969
0.13434239 0.25179201 0.13203682
0.16114895 0.25373873 0.13423313
0.18823144 0.25572476 0.13662101
0.21558990 0.25775009 0.13920045
0.24322432 0.25981462 0.14197147
0.27113470 0.26191851 0.14493404
0.29932106 0.26406163 0.14808822
0.32778335 0.26624408 0.15143393
0.35652167 0.26846582 0.15497123
0.38553590 0.27072683 0.15870009
0.41482607 0.27302712 0.16262054
0.44439220 0.27536669 0.16673253
0.47423431 0.27774557 0.17103612
0.50435239 0.28016371 0.17553125
0.53474647 0.28262115 0.18021798
0.56541640 0.28511786 0.18509625
0.59636241 0.28765386 0.19016612
0.62758434 0.29022914 0.19542757
0.65908217 0.29284370 0.20088054
0.69085604 0.29549757 0.20652510
0.72290587 0.29819071 0.21236125
0.75523162 0.30092311 0.21838897
0.78783333 0.30369484 0.22460823
0.82071102 0.30650583 0.23101908
0.85386467 0.30935609 0.23762150
0.88729423 0.31224567 0.24441548
0.92099994 0.31517446 0.25140104
0.95498139 0.31814262 0.25857818
0.98124999 0.32115000 0.26594687
0.98593748 0.32419676 0.27350712
0.99062502 0.32728270 0.28125894
0.99531251 0.33040798 0.28920236
1.00000000 0.33357248 0.29733732
0.14526519 0.28581259 0.13975470
0.17161548 0.28760558 0.14172845
0.19824176 0.28943789 0.14389379
0.22514397 0.29130948 0.14625068
0.25232220 0.29322031 0.14879915
0.27977630 0.29517049 0.15153921
0.30750641 0.29715988 0.15447082
0.33551246 0.29918861 0.15759400
0.36379451 0.30125660 0.16090876
0.39235249 0.30336392 0.16441506
0.42118645 0.30551046 0.16811298
0.45029634 0.30769631 0.17200242
0.47968224 0.30992144 0.17608348
0.50934398 0.31218588 0.18035607
0.53928185 0.31448957 0.18482022
0.56949556 0.31683257 0.18947597
0.59998530 0.31921485 0.19432327
0.63075095 0.32163641 0.19936213
0.66179258 0.32409722 0.20459260
0.69311017 0.32659736 0.21001463
0.72470379 0.32913679 0.21562822
0.75657320 0.33171546 0.22143337
0.78871870 0.33433345 0.22743012
0.82114017 0.33699071 0.23361839
0.85383761 0.33968723 0.23999827
0.88681096 0.34242308 0.24656969
0.92006034 0.34519818 0.25333273
0.95358557 0.34801263 0.26028731
0.98124999 0.35086629 0.26743346
0.98593748 0.35375929 0.27477115
0.99062502 0.35669154 0.28230047
0.99531251 0.35966304 0.29002133
1.00000000 0.36267385 0.29793376
0.15548207 0.31874862 0.14632140
0.18137613 0.32038790 0.14807262
0.20754616 0.32206649 0.15001541
0.23399211 0.32378435 0.15214975
0.26071402 0.32554144 0.15447567
0.28771195 0.32733789 0.15699317
0.31498581 0.32917356 0.15970226
0.34253561 0.33104858 0.16260289
0.37036145 0.33296287 0.16569509
0.39846316 0.33491641 0.16897887
0.42684084 0.33690923 0.17245422
0.45549452 0.33894134 0.17612113
0.48442420 0.34101278 0.17997961
0.51362967 0.34312347 0.18402968
0.54311126 0.34527344 0.18827130
0.57286876 0.34746271 0.19270450
0.60290229 0.34969127 0.19732925
0.63321167 0.35195911 0.20214558
0.66379702 0.35426617 0.20715351
0.69465840 0.35661262 0.21235298
0.72579575 0.35899827 0.21774402
0.75720900 0.36142325 0.22332664
0.78889823 0.36388749 0.22910084
0.82086343 0.36639103 0.23506656
0.85310459 0.36893386 0.24122390
0.88562167 0.37151599 0.24757278
0.91841483 0.37413734 0.25411326
0.95148379 0.37679803 0.26084530
0.98124999 0.37949798 0.26776889
0.98593748 0.38223723 0.27488407
0.99062502 0.38501576 0.28219083
0.99531251 0.38783357 0.28968912
1.00000000 0.39069062 0.29737902
0.16499303 0.35060009 0.15173692
0.19043083 0.35208562 0.15326561
0.21614464 0.35361049 0.15498585
0.24213432 0.35517460 0.15689765
0.26840001 0.35677800 0.15900102
0.29494169 0.35842070 0.16129598
0.32175928 0.36010265 0.16378252
0.34885287 0.36182395 0.16646062
0.37622243 0.36358449 0.16933027
0.40386790 0.36538434 0.17239150
0.43178937 0.36722344 0.17564429
0.45998678 0.36910182 0.17908867
0.48846018 0.37101951 0.18272461
0.51720947 0.37297648 0.18655215
0.54623485 0.37497270 0.19057119
0.57553601 0.37700826 0.19478185
0.60511333 0.37908310 0.19918406
0.63496643 0.38119718 0.20377783
0.66509569 0.38335055 0.20856322
0.69550073 0.38554323 0.21354017
0.72618186 0.38777518 0.21870866
0.75713879 0.39004645 0.22406875
0.78837180 0.39235699 0.22962037
0.81988084 0.39470679 0.23536356
0.85166568 0.39709586 0.24129836
0.88372648 0.39952424 0.24742472
0.91606343 0.40199190 0.25374264
0.94867617 0.40449888 0.26025209
0.98124999 0.40704510 0.26695320
0.98593748 0.40963060 0.27384579
0.99062502 0.41225538 0.28093001
0.99531251 0.41491950 0.28820577
1.00000000 0.41762286 0.29567310
0.17379805 0.38136697 0.15600128
0.19877963 0.38269880 0.15730742
0.22403717 0.38406992 0.15880512
0.24957062 0.38548034 0.16049439
0.27538007 0.38692999 0.16237523
0.30146551 0.38841897 0.16444764
0.32782686 0.38994724 0.16671161
0.35446417 0.39151475 0.16916715
0.38137752 0.39312157 0.17181428
0.40856671 0.39476767 0.17465295
0.43603191 0.39645305 0.17768322
0.46377313 0.39817771 0.18090504
0.49179029 0.39994168 0.18431844
0.52008331 0.40174493 0.18792340
0.54865241 0.40358743 0.19171996
0.57749736 0.40546927 0.19570804
0.60661840 0.40739030 0.19988771
0.63601536 0.40935069 0.20425896
0.66568822 0.41135037 0.20882177
0.69563711 0.41338933 0.21357618
0.72586197 0.41546756 0.21852210
0.75636268 0.41758502 0.22365965
0.78713948 0.41974181 0.22898874
0.81819218 0.42193794 0.23450941
0.84952080 0.42417330 0.24022162
0.88112545 0.42644793 0.24612544
0.91300601 0.42876190 0.25222081
0.94516253 0.43111515 0.25850779
0.97759515 0.43350762 0.26498628
0.98593748 0.43593940 0.27165636
0.99062502 0.43841046 0.27851802
0.99531251 0.44092086 0.28557125
1.00000000 0.44347048 0.29281604
0.18189715 0.41104931 0.15911451
0.20642245 0.41222739 0.16019806
0.23122378 0.41344482 0.16147326
0.25630099 0.41470146 0.16293997
0.28165418 0.41599742 0.16459826
0.30728334 0.41733262 0.16644812
0.33318847 0.41870719 0.16848956
0.35936958 0.42012098 0.17072254
0.38582665 0.42157406 0.17314713
0.41255963 0.42306644 0.17576325
0.43956855 0.42459810 0.17857099
0.46685356 0.42616904 0.18157026
0.49441442 0.42777929 0.18476111
0.52225125 0.42942876 0.18814352
0.55036408 0.43111759 0.19171752
0.57875282 0.43284565 0.19548306
0.60741758 0.43461305 0.19944018
0.63635826 0.43641973 0.20358890
0.66557491 0.43826562 0.20792916
0.69506752 0.44015086 0.21246102
0.72483617 0.44207537 0.21718442
0.75488067 0.44403914 0.22209941
0.78520119 0.44604221 0.22720595
0.81579763 0.44808459 0.23250408
0.84666997 0.45016623 0.23799375
0.87781835 0.45228714 0.24367502
0.90924281 0.45444736 0.24954784
0.94094306 0.45664689 0.25561225
0.97291934 0.45888567 0.26186824
0.98593748 0.46116370 0.26831576
0.99062502 0.46348101 0.27495489
0.99531251 0.46583769 0.28178558
1.00000000 0.46823356 0.28880778
0.18929033 0.43964705 0.16107655
0.21335939 0.44067144 0.16193756
0.23770446 0.44173509 0.16299020
0.26232541 0.44283801 0.16423436
0.28722239 0.44398025 0.16567008
0.31239530 0.44516176 0.16729742
0.33784419 0.44638258 0.16911630
0.36356899 0.44764262 0.17112677
0.38956982 0.44894201 0.17332879
0.41584659 0.45028064 0.17572239
0.44239932 0.45165855 0.17830755
0.46922803 0.45307583 0.18108431
0.49633262 0.45453230 0.18405257
0.52371323 0.45602804 0.18721248
0.55136979 0.45756310 0.19056390
0.57930231 0.45913747 0.19410692
0.60751081 0.46075115 0.19784151
0.63599527 0.46240407 0.20176765
0.66475570 0.46409625 0.20588540
0.69379205 0.46582776 0.21019468
0.72310448 0.46759853 0.21469556
0.75269270 0.46940857 0.21938798
0.78255695 0.47125793 0.22427200
0.81269711 0.47314659 0.22934754
0.84311330 0.47507447 0.23461471
0.87380540 0.47704166 0.24007340
0.90477353 0.47904819 0.24572372
0.93601751 0.48109394 0.25156555
0.96753764 0.48317897 0.25759900
0.98593748 0.48530328 0.26382399
0.99062502 0.48746690 0.27024058
0.99531251 0.48966983 0.27684867
1.00000000 0.49191207 0.28364840
0.19597758 0.46716025 0.16188741
0.21959040 0.46803093 0.16252588
0.24347921 0.46894085 0.16335593
0.26764393 0.46989003 0.16437759
0.29208466 0.47087854 0.16559078
0.31680131 0.47190633 0.16699557
0.34179395 0.47297341 0.16859189
0.36706251 0.47407976 0.17037980
0.39260709 0.47522539 0.17235929
0.41842765 0.47641030 0.17453034
0.44452405 0.47763449 0.17689297
0.47089657 0.47889799 0.17944717
0.49754500 0.48020077 0.18219292
0.52446932 0.48154283 0.18513027
0.55166966 0.48292419 0.18825915
0.57914591 0.48434481 0.19157964
0.60689813 0.48580474 0.19509166
0.63492638 0.48730394 0.19879526
0.66323054 0.48884240 0.20269047
0.69181061 0.49042016 0.20677722
0.72066677 0.49203724 0.21105553
0.74979877 0.49369353 0.21552543
0.77920681 0.49538916 0.22018689
0.80889082 0.49712408 0.22503988
0.83885074 0.49889824 0.23008452
0.86908662 0.50071168 0.23532067
0.89959854 0.50256449 0.24074842
0.93038625 0.50445658 0.24636774
0.96145010 0.50638789 0.25217861
0.98593748 0.50835848 0.25818107
0.99062502 0.51036835 0.26437509
0.99531251 0.51241755 0.27076066
1.00000000 0.51450592 0.27733785
0.20195889 0.49358881 0.16154708
0.22511548 0.49430576 0.16196303
0.24854806 0.49506199 0.16257055
0.27225652 0.49585742 0.16336966
0.29624099 0.49669218 0.16436030
0.32050145 0.49756625 0.16554254
0.34503782 0.49847960 0.16691634
0.36985016 0.49943227 0.16848169
0.39493844 0.50042409 0.17023863
0.42030278 0.50145531 0.17218715
0.44594297 0.50252581 0.17432721
0.47185922 0.50363559 0.17665888
0.49805138 0.50478464 0.17918208
0.52451944 0.50597298 0.18189691
0.55126357 0.50720054 0.18480325
0.57828355 0.50846744 0.18790118
0.60557956 0.50977367 0.19119066
0.63315153 0.51111913 0.19467172
0.66099942 0.51250392 0.19834436
0.68912333 0.51392794 0.20220856
0.71752322 0.51539123 0.20626435
0.74619901 0.51689386 0.21051168
0.77515072 0.51843572 0.21495062
0.80437845 0.52001697 0.21958108
0.83388209 0.52163732 0.22440314
0.86366171 0.52329707 0.22941677
0.89371741 0.52499616 0.23462199
0.92404890 0.52673447 0.24001874
0.95465642 0.52851212 0.24560708
0.98553997 0.53032887 0.25138697
0.99062502 0.53218508 0.25735846
0.99531251 0.53408056 0.26352152
1.00000000 0.53601527 0.26987612
0.20723429 0.51893294 0.16005562
0.22993463 0.51949614 0.16024904
0.25291097 0.52009863 0.16063401
0.27616322 0.52074039 0.16121057
0.29969144 0.52142137 0.16197866
0.32349563 0.52214170 0.16293834
0.34757572 0.52290136 0.16408961
0.37193185 0.52370024 0.16543239
0.39656392 0.52453846 0.16696681
0.42147198 0.52541590 0.16869277
0.44665596 0.52633262 0.17061032
0.47211596 0.52728868 0.17271940
0.49785182 0.52828401 0.17502008
0.52386373 0.52931851 0.17751232
0.55015153 0.53039247 0.18019614
0.57671535 0.53150558 0.18307151
0.60355508 0.53265816 0.18613845
0.63067079 0.53384984 0.18939698
0.65806252 0.53508085 0.19284707
0.68573010 0.53635120 0.19648874
0.71367377 0.53766078 0.20032196
0.74189323 0.53900963 0.20434678
0.77038872 0.54039776 0.20856313
0.79916024 0.54182529 0.21297108
0.82820761 0.54329199 0.21757059
0.85753107 0.54479802 0.22236167
0.88713038 0.54634333 0.22734432
0.91700566 0.54792792 0.23251852
0.94715703 0.54955178 0.23788434
0.97758424 0.55121487 0.24344167
0.99062502 0.55291736 0.24919063
0.99531251 0.55465913 0.25513113
1.00000000 0.55644011 0.26126319
0.21180378 0.54319239 0.15741299
0.23404789 0.54360181 0.15738383
0.25656793 0.54405063 0.15754628
0.27936393 0.54453862 0.15790027
0.30243593 0.54506594 0.15844585
0.32578385 0.54563254 0.15918298
0.34940779 0.54623842 0.16011170
0.37330762 0.54688358 0.16123195
0.39748341 0.54756808 0.16254382
0.42193526 0.54829180 0.16404723
0.44666293 0.54905480 0.16574223
0.47166669 0.54985714 0.16762878
0.49694633 0.55069876 0.16970691
0.52250195 0.55157959 0.17197661
0.54833359 0.55249977 0.17443790
0.57444108 0.55345923 0.17709069
0.60082459 0.55445796 0.17993510
0.62748408 0.55549598 0.18297108
0.65441948 0.55657327 0.18619862
0.68163085 0.55768985 0.18961775
0.70911825 0.55884570 0.19322842
0.73688149 0.56004083 0.19703071
0.76492083 0.56127530 0.20102452
0.79323608 0.56254905 0.20520993
0.82182729 0.56386203 0.20958687
0.85069454 0.56521434 0.21415545
0.87983763 0.56660593 0.21891551
0.90925664 0.56803679 0.22386722
0.93895179 0.56950688 0.22901045
0.96892273 0.57101631 0.23434529
0.99062502 0.57256502 0.23987161
0.99531251 0.57415307 0.24558961
1.00000000 0.57578033 0.25149915
0.21566731 0.56636727 0.15361920
0.23745519 0.56662297 0.15336750
0.25951898 0.56691808 0.15330741
0.28185874 0.56725234 0.15343885
0.30447450 0.56762594 0.15376185
0.32736623 0.56803876 0.15427646
0.35053384 0.56849098 0.15498264
0.37397742 0.56898248 0.15588035
0.39769703 0.56951314 0.15696965
0.42169255 0.57008320 0.15825053
0.44596404 0.57069248 0.15972298
0.47051159 0.57134110 0.16138700
0.49533492 0.57202888 0.16324256
0.52043426 0.57275599 0.16528973
0.54580969 0.57352245 0.16752847
0.57146096 0.57432812 0.16995873
0.59738821 0.57517320 0.17258058
0.62359148 0.57605749 0.17539403
0.65007067 0.57698101 0.17839903
0.67682576 0.57794392 0.18159559
0.70385695 0.57894605 0.18498373
0.73116392 0.57998741 0.18856347
0.75874692 0.58106822 0.19233474
0.78660607 0.58218819 0.19629756
0.81474096 0.58334744 0.20045200
0.84315181 0.58454597 0.20479801
0.87183881 0.58578390 0.20933557
0.90080154 0.58706105 0.21406469
0.93004036 0.58837736 0.21898542
0.95955515 0.58973306 0.22409767
0.98934591 0.59112805 0.22940150
0.99531251 0.59256232 0.23489691
1.00000000 0.59403586 0.24058390
0.21882494 0.58845758 0.14867423
0.24015653 0.58855957 0.14819998
0.26176417 0.58870089 0.14791735
0.28364766 0.58888143 0.14782624
0.30580711 0.58910131 0.14792670
0.32824260 0.58936042 0.14821878
0.35095400 0.58965892 0.14870238
0.37394136 0.58999664 0.14937757
0.39720470 0.59037364 0.15024433
0.42074400 0.59078985 0.15130265
0.44455928 0.59124541 0.15255256
0.46865052 0.59174031 0.15399404
0.49301767 0.59227449 0.15562706
0.51766080 0.59284788 0.15745169
0.54257989 0.59346062 0.15946785
0.56777495 0.59411258 0.16167560
0.59324598 0.59480387 0.16407493
0.61899298 0.59553444 0.16666579
0.64501584 0.59630430 0.16944827
0.67131478 0.59711343 0.17242229
0.69788969 0.59796184 0.17558789
0.72474045 0.59884948 0.17894505
0.75186723 0.59977651 0.18249378
0.77926999 0.60074282 0.18623410
0.80694866 0.60174835 0.19016600
0.83490336 0.60279316 0.19428940
0.86313403 0.60387731 0.19860442
0.89164048 0.60500067 0.20311099
0.92042315 0.60616338 0.20780918
0.94948161 0.60736537 0.21269889
0.97881609 0.60860658 0.21778017
0.99531251 0.60988718 0.22305305
1.00000000 0.61120701 0.22851755
0.22127666 0.60946333 0.14257808
0.24215202 0.60941160 0.14188132
0.26330334 0.60939914 0.14137611
0.28473061 0.60942602 0.14106248
0.30643386 0.60949212 0.14094040
0.32841304 0.60959756 0.14100991
0.35066825 0.60974228 0.14127098
0.37319934 0.60992628 0.14172363
0.39600641 0.61014956 0.14236784
0.41908953 0.61041206 0.14320363
0.44244847 0.61071396 0.14423098
0.46608350 0.61105508 0.14544992
0.48999447 0.61143547 0.14686039
0.51418126 0.61185521 0.14846247
0.53864419 0.61231416 0.15025608
0.56338298 0.61281246 0.15224129
0.58839774 0.61334997 0.15441805
0.61368847 0.61392683 0.15678638
0.63925517 0.61454296 0.15934631
0.66509783 0.61519837 0.16209778
0.69121647 0.61589307 0.16504088
0.71761096 0.61662698 0.16817544
0.74428159 0.61740029 0.17150168
0.77122808 0.61821282 0.17501941
0.79845053 0.61906463 0.17872876
0.82594895 0.61995578 0.18262967
0.85372335 0.62088615 0.18672214
0.88177365 0.62185585 0.19100617
0.91010004 0.62286478 0.19548181
0.93870223 0.62391299 0.20014895
0.96758050 0.62500060 0.20500767
0.99531251 0.62612736 0.21005805
1.00000000 0.62729353 0.21529992
0.22302240 0.62938452 0.13533078
0.24344154 0.62917906 0.13441147
0.26413661 0.62901294 0.13368373
0.28510764 0.62888598 0.13314754
0.30635464 0.62879843 0.13280292
0.32787764 0.62875015 0.13264987
0.34967652 0.62874109 0.13268842
0.37175143 0.62877136 0.13291849
0.39410228 0.62884092 0.13334017
0.41672903 0.62894976 0.13395339
0.43963182 0.62909782 0.13475823
0.46281058 0.62928528 0.13575460
0.48626524 0.62951195 0.13694255
0.50999588 0.62977791 0.13832206
0.53400254 0.63008320 0.13989316
0.55828506 0.63042772 0.14165579
0.58284360 0.63081151 0.14361002
0.60767806 0.63123471 0.14575586
0.63278854 0.63169706 0.14809318
0.65817493 0.63219869 0.15062213
0.68383735 0.63273972 0.15334265
0.70977563 0.63331991 0.15625472
0.73598987 0.63393945 0.15935837
0.76248026 0.63459831 0.16265361
0.78924644 0.63529634 0.16614035
0.81628853 0.63603371 0.16981871
0.84360677 0.63681048 0.17368865
0.87120080 0.63762641 0.17775014
0.89907086 0.63848162 0.18200323
0.92721695 0.63937610 0.18644783
0.95563889 0.64030993 0.19108406
0.98433679 0.64128304 0.19591182
1.00000000 0.64229536 0.20093118
0.22406225 0.64822108 0.12693232
0.24402511 0.64786190 0.12579046
0.26426399 0.64754200 0.12484016
0.28477871 0.64726138 0.12408143
0.30556953 0.64702010 0.12351427
0.32663622 0.64681804 0.12313869
0.34797889 0.64665532 0.12295468
0.36959755 0.64653188 0.12296221
0.39149213 0.64644766 0.12316135
0.41366267 0.64640278 0.12355203
0.43610919 0.64639717 0.12413432
0.45883173 0.64643085 0.12490814
0.48183012 0.64650381 0.12587355
0.50510454 0.64661604 0.12703052
0.52865493 0.64676756 0.12837906
0.55248117 0.64695835 0.12991919
0.57658350 0.64718848 0.13165085
0.60096174 0.64745790 0.13357410
0.62561595 0.64776653 0.13568890
0.65054619 0.64811450 0.13799530
0.67575228 0.64850175 0.14049327
0.70123428 0.64892823 0.14318280
0.72699237 0.64939404 0.14606389
0.75302643 0.64989913 0.14913657
0.77933639 0.65044349 0.15240085
0.80592233 0.65102714 0.15585661
0.83278424 0.65165007 0.15950400
0.85992205 0.65231234 0.16334298
0.88733590 0.65301389 0.16737354
0.91502565 0.65375465 0.17159554
0.94299144 0.65453470 0.17600922
0.97123313 0.65535396 0.18061450
0.99975073 0.65621269 0.18541129
0.22439618 0.66597313 0.11738270
0.24390280 0.66546023 0.11601827
0.26368541 0.66498667 0.11484546
0.28374392 0.66455233 0.11386418
0.30407840 0.66415721 0.11307447
0.32468891 0.66380143 0.11247633
0.34557539 0.66348499 0.11206979
0.36673772 0.66320783 0.11185478
0.38817608 0.66296989 0.11183137
0.40989047 0.66277128 0.11199950
0.43188068 0.66261190 0.11235926
0.45414695 0.66249192 0.11291052
0.47668916 0.66241115 0.11365338
0.49950728 0.66236967 0.11458778
0.52260143 0.66236746 0.11571380
0.54597151 0.66240454 0.11703137
0.56961751 0.66248089 0.11854050
0.59353948 0.66259652 0.12024123
0.61773747 0.66275150 0.12213349
0.64221138 0.66294569 0.12421730
0.66696137 0.66317922 0.12649277
0.69198710 0.66345203 0.12895975
0.71728891 0.66376406 0.13161831
0.74286669 0.66411537 0.13446841
0.76872039 0.66450602 0.13751012
0.79485005 0.66493601 0.14074339
0.82125574 0.66540521 0.14416823
0.84793729 0.66591376 0.14778462
0.87489498 0.66646147 0.15159263
0.90212846 0.66704863 0.15559214
