LUT_fitting/LUTs/vhs_to_video8_standard_i_native_1M_random_seed2002_strength85.cube
TITLE "VHS to Video8 standard degree 2 intercept True strength 0.85"
LUT_3D_SIZE 9
DOMAIN_MIN 0.0 0.0 0.0
DOMAIN_MAX 1.0 1.0 1.0
0.06913950 0.06542036 0.07617998
0.18714634 0.07651754 0.09056552
0.30956858 0.08824328 0.10801619
0.43640614 0.10059755 0.12853196
0.56765914 0.11358039 0.15211286
0.70332748 0.12719175 0.17875887
0.84341115 0.14143169 0.20847002
0.98124999 0.15630016 0.24124627
1.00000000 0.17179717 0.27708766
0.12271366 0.21668682 0.12316778
0.23342058 0.22532433 0.13399261
0.34854290 0.23459043 0.14788257
0.46808058 0.24448508 0.16483763
0.59203362 0.25500831 0.18485779
0.72040206 0.26616004 0.20794308
0.85318577 0.27794033 0.23409352
0.98124999 0.29034919 0.26330906
1.00000000 0.30338657 0.29558969
0.16499303 0.35060009 0.15173692
0.26840001 0.35677800 0.15900102
0.37622243 0.36358449 0.16933027
0.48846018 0.37101951 0.18272461
0.60511333 0.37908310 0.19918406
0.72618186 0.38777518 0.21870866
0.85166568 0.39709586 0.24129836
0.98124999 0.40704510 0.26695320
1.00000000 0.41762286 0.29567310
0.19597758 0.46716025 0.16188741
0.29208466 0.47087854 0.16559078
0.39260709 0.47522539 0.17235929
0.49754500 0.48020077 0.18219292
0.60689813 0.48580474 0.19509166
0.72066677 0.49203724 0.21105553
0.83885074 0.49889824 0.23008452
0.96145010 0.50638789 0.25217861
1.00000000 0.51450592 0.27733785
0.21566731 0.56636727 0.15361920
0.30447450 0.56762594 0.15376185
0.39769703 0.56951314 0.15696965
0.49533492 0.57202888 0.16324256
0.59738821 0.57517320 0.17258058
0.70385695 0.57894605 0.18498373
0.81474096 0.58334744 0.20045200
0.93004036 0.58837736 0.21898542
1.00000000 0.59403586 0.24058390
0.22406225 0.64822108 0.12693232
0.30556953 0.64702010 0.12351427
0.39149213 0.64644766 0.12316135
0.48183012 0.64650381 0.12587355
0.57658350 0.64718848 0.13165085
0.67575228 0.64850175 0.14049327
0.77933639 0.65044349 0.15240085
0.88733590 0.65301389 0.16737354
0.99975073 0.65621269 0.18541129
0.22116241 0.71272188 0.08182678
0.29536974 0.70906132 0.07484807
0.37399241 0.70602924 0.07093435
0.45703056 0.70362574 0.07008590
0.54448402 0.70185083 0.07230242
0.63635284 0.70070428 0.07758416
0.73263693 0.70018643 0.08593095
0.83333659 0.70029712 0.09734292
0.93845153 0.70103645 0.11181998
0.20696771 0.75986934 0.01830256
0.27387512 0.75374913 0.00776311
0.34519795 0.74825740 0.00028872
0.42093611 0.74339432 0.00000000
0.50108963 0.73915970 0.00000000
0.58565861 0.73555374 0.00000000
0.67464286 0.73257619 0.00104246
0.76804245 0.73022723 0.00889372
0.86585748 0.72850692 0.01981005
0.18147826 0.78966373 0.00000000
0.24108572 0.78108394 0.00000000
0.30510861 0.77313256 0.00000000
0.37354690 0.76580983 0.00000000
0.44640049 0.75911564 0.00000000
0.52366948 0.75304997 0.00000000
0.60535395 0.74761283 0.00000000
0.69145358 0.74280429 0.00000000
0.78196865 0.73862433 0.00000000
0.07022142 0.07044836 0.18035528
0.18700665 0.08017205 0.19272196
0.30820733 0.09052429 0.20815375
0.43382332 0.10150509 0.22665069
0.56385469 0.11311442 0.24821270
0.69830143 0.12535231 0.27283984
0.83716351 0.13821875 0.30053216
0.98044109 0.15171374 0.33128953
1.00000000 0.16583727 0.36511207
0.12680084 0.22591998 0.23403323
0.23628618 0.23318399 0.24283920
0.35018691 0.24107663 0.25471032
0.46850294 0.24959777 0.26964647
0.59123445 0.25874752 0.28764778
0.71838129 0.26852578 0.30871424
0.84994346 0.27893257 0.33284581
0.98124999 0.28996792 0.36004251
1.00000000 0.30163181 0.39030430
0.17208545 0.36403841 0.26929250
0.27427089 0.36884284 0.27453780
0.38087171 0.37427586 0.28284812
0.49188781 0.38033736 0.29422367
0.60731941 0.38702747 0.30866420
0.72716635 0.39434606 0.32616997
0.85142851 0.40229326 0.34674078
0.98010635 0.41086900 0.37037677
1.00000000 0.42007327 0.39707780
0.20607528 0.48480374 0.28613314
0.30096078 0.48714849 0.28781763
0.40026158 0.49012187 0.29256728
0.50397795 0.49372378 0.30038205
0.61210948 0.49795425 0.31126195
0.72465652 0.50281322 0.32520694
0.84161890 0.50830078 0.34221709
0.96299684 0.51441693 0.36229235
1.00000000 0.52116150 0.38543269
0.22877027 0.58821589 0.28455508
0.31635591 0.58810103 0.28267887
0.40835682 0.58861476 0.28386784
0.50477314 0.58975708 0.28812191
0.60560477 0.59152788 0.29544103
0.71085197 0.59392720 0.30582535
0.82051450 0.59695512 0.31927472
0.93459231 0.60061163 0.33578929
1.00000000 0.60489655 0.35536888
0.24017051 0.67427480 0.26455837
0.32045615 0.67170030 0.25912148
0.40515715 0.66975439 0.25674963
0.49427354 0.66843712 0.25744301
0.58780539 0.66774827 0.26120138
0.68575263 0.66768801 0.26802498
0.78811520 0.66825634 0.27791369
0.89489317 0.66945308 0.29086754
1.00000000 0.67127854 0.30688643
0.24027590 0.74298078 0.22614293
0.31326163 0.73794669 0.21714538
0.39066273 0.73354113 0.21121278
0.47247922 0.72976416 0.20834547
0.55871105 0.72661573 0.20854315
0.64935839 0.72409570 0.21180601
0.74442101 0.72220439 0.21813396
0.84389907 0.72094160 0.22752708
0.94779235 0.72030741 0.23998526
0.22908641 0.79433334 0.16930887
0.29477227 0.78683972 0.15675056
0.36487353 0.77997446 0.14725731
0.43939006 0.77373791 0.14082924
0.51832205 0.76812983 0.13746622
0.60166943 0.76315033 0.13716839
0.68943214 0.75879931 0.13993561
0.78161025 0.75507689 0.14576800
0.87820363 0.75198305 0.15466547
0.20660226 0.82833296 0.09405614
0.26498812 0.81837964 0.07793712
0.32778946 0.80905473 0.06488315
0.39500609 0.80035859 0.05489436
0.46663821 0.79229087 0.04797063
0.54268557 0.78485173 0.04411203
0.62314844 0.77804112 0.04331858
0.70802665 0.77185905 0.04559021
0.79732007 0.76630563 0.05092701
0.07405613 0.07622116 0.28245756
0.18961981 0.08457136 0.29280537
0.30959886 0.09355012 0.30621830
0.43399328 0.10315741 0.32269636
0.56280309 0.11339328 0.34223956
0.69602829 0.12425767 0.36484784
0.83366877 0.13575061 0.39052126
0.97572476 0.14787211 0.41925979
1.00000000 0.16062215 0.45106345
0.13364084 0.23589791 0.34282562
0.24190456 0.24178846 0.34961274
0.35458371 0.24830759 0.35946494
0.47167817 0.25545526 0.37238228
0.59318805 0.26323152 0.38836473
0.71911335 0.27163625 0.40741229
0.84945393 0.28066957 0.42952505
0.98124999 0.29033142 0.45470285
1.00000000 0.30062187 0.48294586
0.18193071 0.37822148 0.38477507
0.28289455 0.38165241 0.38800144
0.38827378 0.38571197 0.39429295
0.49806830 0.39039999 0.40364957
0.61227834 0.39571655 0.41607136
0.73090369 0.40166169 0.43155816
0.85394430 0.40823543 0.45011020
0.98124999 0.41543770 0.47172728
1.00000000 0.42326853 0.49640948
0.21892576 0.50319201 0.40830582
0.31258970 0.50416332 0.40797150
0.41066897 0.50576317 0.41070223
0.51316369 0.50799161 0.41649818
0.62007368 0.51084858 0.42535919
0.73139912 0.51433408 0.43728539
0.84713989 0.51844811 0.45227665
0.96729612 0.52319080 0.47033304
1.00000000 0.52856183 0.49145454
0.24462605 0.61080933 0.41341791
0.33099008 0.60932100 0.40952289
0.42176944 0.60846126 0.40869290
0.51696414 0.60822999 0.41092816
0.61657429 0.60862738 0.41622841
0.72059983 0.60965312 0.42459387
0.82904071 0.61130756 0.43602440
0.94189686 0.61359060 0.45052013
1.00000000 0.61650205 0.46808079
0.25903150 0.70107341 0.40011126
0.33809561 0.69712538 0.39265561
0.42157504 0.69380605 0.38826483
0.50946987 0.69111520 0.38693941
0.60178012 0.68905294 0.38867894
0.69850564 0.68761915 0.39348364
0.79964668 0.68681395 0.40135351
0.90520298 0.68663728 0.41228855
1.00000000 0.68708920 0.42628849
0.26214215 0.77398455 0.36838603
0.33390635 0.76757699 0.35736966
0.41008586 0.76179796 0.34941819
0.49068078 0.75664747 0.34453204
0.57569110 0.75212562 0.34271082
0.66511673 0.74823207 0.34395477
0.75895774 0.74496728 0.34826392
0.85721421 0.74233097 0.35563815
0.95988595 0.74032331 0.36607751
0.25395802 0.82954234 0.31824216
0.31842229 0.82067519 0.30366492
0.38730192 0.81243646 0.29215285
0.46059689 0.80482638 0.28370586
0.53830719 0.79784483 0.27832407
0.62043297 0.79149181 0.27600729
0.70697415 0.78576738 0.27675572
0.79793060 0.78067142 0.28056920
0.89330250 0.77620411 0.28744784
0.23447908 0.86774701 0.24967958
0.29164341 0.85642028 0.23154163
0.35322315 0.84572190 0.21646886
0.41921818 0.83565217 0.20446116
0.48962861 0.82621098 0.19551863
0.56445438 0.81739837 0.18964115
0.64369571 0.80921429 0.18682882
0.72735226 0.80165869 0.18708161
0.81542414 0.79473174 0.19039954
0.08064366 0.08273876 0.38248679
0.19498575 0.08971547 0.39081576
0.31374323 0.09732074 0.40220982
0.43691605 0.10555455 0.41666904
0.56450427 0.11441690 0.43419334
0.69650793 0.12390782 0.45478284
0.83292681 0.13402729 0.47843736
0.97376108 0.14477529 0.50515705
1.00000000 0.15615185 0.53494185
0.14323361 0.24662068 0.44954503
0.25027576 0.25113767 0.45431331
0.36173335 0.25628334 0.46214664
0.47760624 0.26205751 0.47304517
0.59789455 0.26846027 0.48700872
0.72259825 0.27549157 0.50403750
0.85171723 0.28315139 0.52413124
0.98124999 0.29143974 0.54729021
1.00000000 0.30035669 0.57351428
0.19452877 0.39314938 0.49818456
0.29427102 0.39520681 0.49939215
0.39842868 0.39789289 0.50366473
0.50700170 0.40120742 0.51100254
0.61998999 0.40515053 0.52140540
0.73739386 0.40972218 0.53487343
0.85921288 0.41492236 0.55140656
0.98124999 0.42075115 0.57100481
1.00000000 0.42720842 0.59366810
0.23452909 0.52232504 0.52840549
0.32697141 0.52192289 0.52605236
0.42382908 0.52214921 0.52676427
0.52510226 0.52300417 0.53054136
0.63079065 0.52448767 0.53738350
0.74089456 0.52659965 0.54729080
0.85541373 0.52934021 0.56026316
0.97434843 0.53270942 0.57630068
1.00000000 0.53670704 0.59540331
0.26323465 0.63414752 0.54020774
0.34837705 0.63128567 0.53429377
0.43793482 0.62905246 0.53144503
0.53190804 0.62744778 0.53166139
0.63029653 0.62647164 0.53494281
0.73310053 0.62612391 0.54128939
0.84031981 0.62640488 0.55070102
0.95195442 0.62731445 0.56317782
1.00000000 0.62885243 0.57871974
0.28064534 0.72861671 0.53359121
0.35848784 0.72329533 0.52411664
0.44074571 0.71860242 0.51770711
0.52741897 0.71453810 0.51436281
0.61850756 0.71110231 0.51408350
0.71401161 0.70829511 0.51686943
0.81393099 0.70611638 0.52272034
0.91826576 0.70456624 0.53163642
1.00000000 0.70364469 0.54361761
0.28676128 0.80573308 0.50855613
0.35730386 0.79795206 0.49552083
0.43226182 0.79079950 0.48555052
0.51163518 0.78427553 0.47864550
0.59542388 0.77838016 0.47480541
0.68362796 0.77311313 0.47403061
0.77624732 0.76847488 0.47632083
0.87328225 0.76446509 0.48167622
0.97473240 0.76108390 0.49009669
0.28158239 0.86549598 0.46510234
0.34482503 0.85525542 0.44850633
0.41248310 0.84564310 0.43497533
0.48455650 0.83665961 0.42450956
0.56104529 0.82830453 0.41710880
0.64194953 0.82057804 0.41277325
0.72726899 0.81348008 0.41150275
0.81700391 0.80701071 0.41329741
0.91115421 0.80116987 0.41815719
0.26510870 0.90790594 0.40322992
0.32105142 0.89520568 0.38307318
0.38140953 0.88313377 0.36598146
0.44618309 0.87169063 0.35195494
0.51537192 0.86087596 0.34099349
0.58897620 0.85068977 0.33309716
0.66699582 0.84113222 0.32826599
0.74943084 0.83220315 0.32649991
0.83628118 0.82390273 0.32779899
0.08998401 0.09000117 0.48044303
0.20310450 0.09560439 0.48675317
0.32064041 0.10183617 0.49612838
0.44259170 0.10869649 0.50856876
0.56895822 0.11618538 0.52407420
0.69974029 0.12430278 0.54264474
0.83493763 0.13304876 0.56428045
0.97455049 0.14242327 0.58898127
1.00000000 0.15242635 0.61674714
0.15557922 0.25808823 0.55419141
0.26139981 0.26123178 0.55694079
0.37163579 0.26500392 0.56275529
0.48628712 0.26940462 0.57163495
0.60535377 0.27443391 0.58357966
0.72883588 0.28009170 0.59858954
0.85673332 0.28637803 0.61666441
0.98124999 0.29329288 0.63780457
1.00000000 0.30083635 0.66200972
0.20987962 0.40882212 0.60952115
0.30840030 0.40950608 0.60870981
0.41133636 0.41081858 0.61096358
0.51868773 0.41275966 0.61628246
0.63045460 0.41532928 0.62466651
0.74663675 0.41852745 0.63611567
0.86723423 0.42235416 0.65062988
0.98124999 0.42680943 0.66820931
1.00000000 0.43189320 0.68885374
0.25288525 0.54220289 0.64643216
0.34410596 0.54042721 0.64206016
0.43974206 0.53928006 0.64075315
0.53979361 0.53876162 0.64251143
0.64426041 0.53887153 0.64733469
0.75314271 0.53961003 0.65522313
0.86644042 0.54097712 0.66617656
0.98124999 0.54297280 0.68019533
1.00000000 0.54559696 0.69727904
0.28459603 0.65823048 0.66492450
0.36851686 0.65399516 0.65699184
0.45685303 0.65038848 0.65212405
0.54960459 0.64741027 0.65032160
0.64677155 0.64506060 0.65158415
0.74835396 0.64333940 0.65591186
0.85435176 0.64224690 0.66330469
0.96476483 0.64178294 0.67376268
1.00000000 0.64194745 0.68728566
0.30501202 0.75690490 0.66499823
0.38163292 0.75020999 0.65350485
0.46266919 0.74414361 0.64507639
0.54812080 0.73870581 0.63971317
0.63798785 0.73389649 0.63741505
0.73227024 0.72971582 0.63818198
0.83096826 0.72616363 0.64201409
0.93408144 0.72323996 0.64891136
1.00000000 0.72094494 0.65887362
0.31413320 0.83822644 0.64665323
0.38345417 0.82907188 0.63159907
0.45719051 0.82054585 0.61960995
0.53534228 0.81264842 0.61068606
0.61790943 0.80537951 0.60482711
0.70489198 0.79873890 0.60203338
0.79628980 0.79272711 0.60230482
0.89210314 0.78734386 0.60564125
0.99233168 0.78258926 0.61204278
0.31195951 0.90219444 0.60988963
0.37398064 0.89058036 0.59127468
0.44041705 0.87959462 0.57572484
0.51126891 0.86923760 0.56324023
0.58653617 0.85950899 0.55382067
0.66621876 0.85040903 0.54746622
0.75031680 0.84193754 0.54417682
0.83883011 0.83409470 0.54395264
0.93175882 0.82688040 0.54679364
0.29849115 0.94880939 0.55470723
0.35321227 0.93473566 0.53253168
0.41234881 0.92129034 0.51342118
0.47590071 0.90847367 0.49737573
0.54386806 0.89628541 0.48439541
0.61625069 0.88472581 0.47448033
0.69304889 0.87379479 0.46763027
0.77426225 0.86349225 0.46384525
0.85989100 0.85381836 0.46312547
0.10207716 0.09800836 0.57632625
0.21397609 0.10223811 0.58061755
0.33029038 0.10709640 0.58797377
0.45102006 0.11258323 0.59839535
0.57616508 0.11869860 0.61188185
0.70572555 0.12544255 0.62843359
0.83970135 0.13281502 0.64805043
0.97809255 0.14081605 0.67073238
1.00000000 0.14944562 0.69647944
0.17067763 0.27030057 0.65676475
0.27527660 0.27207065 0.65749532
0.38429102 0.27446932 0.66129088
0.49772075 0.27749652 0.66815168
0.61556590 0.28115231 0.67807752
0.73782647 0.28543663 0.69106859
0.86450231 0.29034945 0.70712465
0.98124999 0.29589084 0.72624588
1.00000000 0.30206078 0.74843222
0.22798331 0.42523962 0.71878457
0.32528237 0.42455012 0.71595442
0.42699686 0.42448914 0.71618932
0.53312671 0.42505676 0.71948940
0.64367199 0.42625284 0.72585452
0.75863254 0.42807752 0.73528481
0.87800848 0.43053076 0.74778020
0.98124999 0.43361256 0.76334077
1.00000000 0.43732285 0.78196639
0.27399415 0.56282556 0.76238579
0.36399335 0.55967641 0.75599492
0.45840782 0.55715573 0.75266898
0.55723780 0.55526376 0.75240839
0.66048300 0.55400026 0.75521278
0.76814377 0.55336529 0.76108241
0.88021982 0.55335891 0.77001703
0.98124999 0.55398107 0.78201687
1.00000000 0.55523175 0.79708183
0.30871019 0.68305838 0.78756827
0.39140949 0.67744952 0.77761668
0.47852409 0.67246938 0.77073008
0.57005405 0.66811764 0.76690876
0.66599941 0.66439456 0.76615244
0.76636028 0.66129982 0.76846129
0.87113637 0.65883386 0.77383530
0.98032784 0.65699643 0.78227431
1.00000000 0.65578747 0.79377860
0.33213145 0.78593791 0.79433215
0.40753081 0.77786946 0.78081989
0.48734552 0.77042961 0.77037257
0.57157558 0.76361829 0.76299047
0.66022104 0.75743550 0.75867337
0.75328183 0.75188136 0.75742161
0.85075814 0.74695569 0.75923479
0.95264971 0.74265856 0.76411319
1.00000000 0.73898995 0.77205664
0.34425792 0.87146443 0.78267723
0.41235736 0.86093640 0.76560426
0.48487210 0.85103691 0.75159621
0.56180227 0.84176594 0.74065351
0.64314783 0.83312356 0.73277569
0.72890872 0.82510960 0.72796309
0.81908500 0.81772435 0.72621566
0.91367668 0.81096756 0.72753322
1.00000000 0.80483949 0.73191601
0.34508952 0.93963760 0.75260377
0.40588903 0.92665005 0.73197001
0.47110391 0.91429079 0.71440130
0.54073417 0.90256029 0.69989777
0.61477971 0.89145821 0.68845940
0.69324076 0.88098478 0.68008602
0.77611721 0.87113988 0.67477787
0.86340892 0.86192346 0.67253476
0.95511603 0.85333568 0.67335683
0.33462641 0.99045783 0.70411164
0.38812596 0.97501063 0.67991716
0.44604093 0.96019179 0.65878773
0.50837123 0.94600159 0.64072347
0.57511687 0.93243992 0.62572432
0.64627796 0.91950685 0.61379027
0.72185457 0.90720236 0.60492134
0.80184633 0.89552629 0.59911758
0.88625348 0.88447893 0.59637892
0.11692311 0.10676037 0.67013639
0.22760046 0.10961661 0.67240882
0.34269321 0.11310142 0.67774630
0.46220130 0.11721477 0.68614894
0.58612478 0.12195668 0.69761664
0.71446359 0.12732710 0.71214950
0.84721780 0.13332610 0.72974741
0.98124999 0.13995364 0.75041056
1.00000000 0.14720973 0.77413875
0.18852884 0.28325772 0.75726503
0.29190624 0.28365433 0.75597680
0.39969909 0.28467950 0.75775349
0.51190722 0.28633320 0.76259547
0.62853080 0.28861549 0.77050239
0.74956971 0.29152632 0.78147465
0.87502396 0.29506570 0.79551172
0.98124999 0.29923356 0.81261420
1.00000000 0.30403006 0.83278161
0.24883978 0.44240195 0.82597500
0.34491724 0.44033894 0.82112604
0.44541019 0.43890449 0.81934202
0.55031848 0.43809858 0.82062328
0.65964210 0.43792120 0.82496947
0.77338117 0.43837237 0.83238101
0.89153546 0.43945211 0.84285742
0.98124999 0.44116038 0.85639918
1.00000000 0.44349724 0.87300587
0.29785588 0.58419299 0.87626636
0.38663349 0.57967031 0.86785668
0.47982642 0.57577622 0.86251193
0.57743478 0.57251072 0.86023247
0.67945850 0.56987369 0.86101800
0.78589761 0.56786531 0.86486870
0.89675206 0.56648535 0.87178445
0.98124999 0.56573403 0.88176554
1.00000000 0.56561124 0.89481151
0.33557719 0.70863092 0.90813905
0.41705489 0.70164865 0.89616859
0.50294799 0.69529492 0.88726318
0.59325635 0.68956977 0.88142294
0.68798018 0.68447310 0.87864780
0.78711939 0.68000507 0.87893778
0.89067394 0.67616558 0.88229287
0.98124999 0.67295462 0.88871306
1.00000000 0.67037213 0.89819837
0.36200371 0.81571567 0.92159307
0.43618149 0.80627376 0.90606189
0.51477462 0.79746044 0.89359576
0.59778309 0.78927565 0.88419485
0.68520701 0.78171933 0.87785882
0.77704626 0.77479172 0.87458825
0.87330091 0.76849252 0.87438256
0.97397089 0.76282191 0.87724209
1.00000000 0.75777978 0.88316667
0.37713546 0.90544736 0.91662836
0.44401327 0.89354581 0.89753640
0.51530647 0.88227284 0.88150954
0.59101510 0.87162840 0.86854792
0.67113906 0.86161256 0.85865128
0.75567842 0.85222512 0.85181987
0.84463298 0.84346634 0.84805346
0.93800318 0.83533603 0.84735233
1.00000000 0.82783443 0.84971613
0.38097230 0.97782576 0.89324492
0.44055024 0.96346462 0.87059236
0.50454354 0.94973195 0.85100478
0.57295221 0.93662792 0.83448243
0.64577627 0.92415237 0.82102501
0.72301573 0.91230547 0.81063300
0.80467051 0.90108705 0.80330580
0.89074063 0.89049715 0.79904395
0.98122615 0.88053584 0.79784709
0.37351444 1.00000000 0.85144293
0.42579240 1.00000000 0.82522964
0.48248583 0.99983805 0.80208135
0.54359460 0.98427439 0.78199828
0.60911870 0.96933919 0.76498014
0.67905819 0.95503265 0.75102729
0.75341314 0.94135463 0.74013954
0.83218330 0.92830503 0.73231685
0.91536885 0.91588414 0.72755933
0.13452189 0.11625717 0.76187354
0.24397762 0.11773993 0.76212704
0.35784882 0.11985125 0.76544571
0.47613531 0.12259110 0.77182949
0.59883720 0.12595950 0.78127831
0.72595447 0.12995647 0.79379231
0.85748708 0.13458197 0.80937147
0.98124999 0.13983603 0.82801569
1.00000000 0.14571862 0.84972495
0.20913288 0.29695970 0.85569239
0.31128871 0.29598278 0.85238516
0.41785997 0.29563445 0.85214311
0.52884656 0.29591468 0.85496616
0.64424849 0.29682350 0.86085427
0.76406586 0.29836082 0.86980754
0.88829851 0.30052668 0.88182598
0.98124999 0.30332109 0.89690948
1.00000000 0.30674407 0.91505820
0.27244908 0.46030903 0.93109244
0.36730498 0.45687252 0.92422456
0.46657634 0.45406458 0.92042172
0.57026297 0.45188516 0.91968405
0.67836511 0.45033431 0.92201155
0.79088247 0.44941202 0.92740405
0.90781522 0.44911826 0.93586177
0.98124999 0.44945312 0.94738460
1.00000000 0.45041648 0.96197248
0.32447049 0.60630530 0.98124999
0.41202646 0.60040915 0.97764540
0.50399780 0.59514153 0.97028178
0.60038465 0.59050262 0.96598345
0.70118678 0.58649206 0.96475011
0.80640423 0.58311021 0.96658206
0.91603708 0.58035672 0.97147888
0.98124999 0.57823199 0.97944111
1.00000000 0.57673562 0.98124999
0.36519703 0.73494834 0.98124999
0.44545314 0.72659266 0.98124999
0.53012466 0.71886539 0.98124999
0.61921144 0.71176672 0.98124999
0.71271366 0.70529664 0.98124999
0.81063128 0.69945502 0.98124999
0.91296428 0.69424200 0.98124999
0.98124999 0.68965757 0.98124999
1.00000000 0.68570155 0.98124999
0.39462879 0.84623826 0.98124999
0.46758497 0.83542281 0.98124999
0.54495656 0.82523596 0.98124999
0.62674344 0.81567776 0.98124999
0.71294582 0.80674791 0.98124999
0.80356336 0.79844689 0.98124999
0.89859653 0.79077417 0.98124999
0.98124999 0.78373009 0.98124999
1.00000000 0.77731448 0.98124999
0.41276577 0.94017518 0.98124999
0.47842205 0.92690015 0.98124999
0.54849362 0.91425365 0.98124999
0.62298071 0.90223575 0.98124999
0.70188308 0.89084637 0.98124999
0.78520089 0.88008547 0.97360349
0.87293392 0.86995316 0.96781838
0.96508253 0.86044943 0.96509826
1.00000000 0.85157430 0.96544325
0.41960791 0.98124999 0.98124999
0.47796422 0.98124999 0.98124999
0.54073608 0.98124999 0.98124999
0.60792309 0.97144037 0.96699393
0.67952561 0.95759135 0.95151782
0.75554347 0.94437099 0.93910676
0.83597666 0.93177897 0.92976087
0.92082524 0.91981566 0.92348003
1.00000000 0.90848088 0.92026436
0.41515529 1.00000000 0.98124999
0.46621168 1.00000000 0.96846896
0.52168351 1.00000000 0.94330192
0.58157068 1.00000000 0.92119992
0.64587325 1.00000000 0.90216309
0.71459121 0.99130327 0.88619125
0.78772455 0.97625172 0.87328470
0.86527312 0.96182871 0.86344314
0.94723713 0.94803435 0.85666680
0.15487346 0.12649879 0.85153764
0.26310763 0.12660804 0.84977233
0.37575719 0.12734587 0.85107207
0.49282217 0.12871225 0.85543704
0.61430246 0.13070717 0.86286694
0.74019814 0.13333063 0.87336218
0.87050915 0.13658264 0.88692230
0.98124999 0.14046323 0.90354776
1.00000000 0.14497231 0.92323816
0.23248972 0.31140643 0.95204657
0.33342394 0.30905604 0.94672060
0.43877363 0.30733424 0.94445962
0.54853863 0.30624098 0.94526386
0.66271901 0.30577630 0.94913310
0.78131479 0.30594012 0.95606762
0.90432596 0.30673251 0.96606708
0.98124999 0.30815345 0.97913164
1.00000000 0.31020296 0.99526149
0.29881120 0.47896093 1.00000000
0.39244550 0.47415096 1.00000000
0.49049526 0.46996954 1.00000000
0.59296036 0.46641663 1.00000000
0.69984090 0.46349230 1.00000000
0.81113672 0.46119648 1.00000000
0.92684782 0.45952934 1.00000000
0.98124999 0.45849064 1.00000000
1.00000000 0.45808053 1.00000000
0.35383782 0.62916243 1.00000000
0.44017223 0.62189275 1.00000000
0.53092206 0.61525166 1.00000000
0.62608731 0.60923922 1.00000000
0.72566777 0.60385525 1.00000000
0.82966369 0.59909981 1.00000000
0.93807501 0.59497291 1.00000000
0.98124999 0.59147465 1.00000000
1.00000000 0.58860481 1.00000000
0.39756963 0.76201057 1.00000000
0.47660416 0.75228143 1.00000000
0.56005406 0.74318063 1.00000000
0.64791936 0.73470849 1.00000000
0.74019998 0.72686493 1.00000000
0.83689606 0.71964985 1.00000000
0.93800735 0.71306336 1.00000000
0.98124999 0.70710534 1.00000000
1.00000000 0.70177591 1.00000000
0.43000668 0.87750566 1.00000000
0.50174129 0.86531675 1.00000000
0.57789135 0.85375643 1.00000000
0.65845656 0.84282464 1.00000000
0.74343735 0.83252144 1.00000000
0.83283335 0.82284683 1.00000000
0.92664480 0.81380063 1.00000000
0.98124999 0.80538309 1.00000000
1.00000000 0.79759401 1.00000000
0.45114890 0.96249998 1.00000000
0.51558357 0.96099919 1.00000000
0.58443367 0.94697917 1.00000000
0.65769911 0.93358779 1.00000000
0.73537987 0.92082494 1.00000000
0.81747603 0.90869051 1.00000000
0.90398753 0.89718473 1.00000000
0.98124999 0.88630748 1.00000000
1.00000000 0.87605894 1.00000000
0.46099633 0.98124999 1.00000000
0.51813108 0.98124999 1.00000000
0.57968128 0.98124999 1.00000000
0.64564681 0.98124999 1.00000000
0.71602762 0.98124999 1.00000000
0.79082394 0.97718120 1.00000000
0.87003547 0.96321571 1.00000000
0.95366246 0.94987887 1.00000000
1.00000000 0.93717062 1.00000000
0.45954898 1.00000000 1.00000000
0.50938380 1.00000000 1.00000000
0.56363404 1.00000000 1.00000000
0.62229967 1.00000000 1.00000000
0.68538052 1.00000000 1.00000000
0.75287688 1.00000000 1.00000000
0.82478863 1.00000000 1.00000000
0.90111566 0.99609715 0.99249637
0.98185807 0.98092926 0.98370111
