LUT_fitting/LUTs/vhs_to_video8_standard_i_native_1M_random_seed2002_strength85.cube
TITLE "VHS to Video8 standard degree 2 intercept True strength 0.85"
LUT_3D_SIZE 5
DOMAIN_MIN 0.0 0.0 0.0
DOMAIN_MAX 1.0 1.0 1.0
0.06913950 0.06542036 0.07617998
0.30956858 0.08824328 0.10801619
0.56765914 0.11358039 0.15211286
0.84341115 0.14143169 0.20847002
1.00000000 0.17179717 0.27708766
0.16499303 0.35060009 0.15173692
0.37622243 0.36358449 0.16933027
0.60511333 0.37908310 0.19918406
0.85166568 0.39709586 0.24129836
1.00000000 0.41762286 0.29567310
0.21566731 0.56636727 0.15361920
0.39769703 0.56951314 0.15696965
0.59738821 0.57517320 0.17258058
0.81474096 0.58334744 0.20045200
1.00000000 0.59403586 0.24058390
0.22116241 0.71272188 0.08182678
0.37399241 0.70602924 0.07093435
0.54448402 0.70185083 0.07230242
0.73263693 0.70018643 0.08593095
0.93845153 0.70103645 0.11181998
0.18147826 0.78966373 0.00000000
0.30510861 0.77313256 0.00000000
0.44640049 0.75911564 0.00000000
0.60535395 0.74761283 0.00000000
0.78196865 0.73862433 0.00000000
0.07405613 0.07622116 0.28245756
0.30959886 0.09355012 0.30621830
0.56280309 0.11339328 0.34223956
0.83366877 0.13575061 0.39052126
1.00000000 0.16062215 0.45106345
0.18193071 0.37822148 0.38477507
0.38827378 0.38571197 0.39429295
0.61227834 0.39571655 0.41607136
0.85394430 0.40823543 0.45011020
1.00000000 0.42326853 0.49640948
0.24462605 0.61080933 0.41341791
0.42176944 0.60846126 0.40869290
0.61657429 0.60862738 0.41622841
0.82904071 0.61130756 0.43602440
1.00000000 0.61650205 0.46808079
0.26214215 0.77398455 0.36838603
0.41008586 0.76179796 0.34941819
0.57569110 0.75212562 0.34271082
0.75895774 0.74496728 0.34826392
0.95988595 0.74032331 0.36607751
0.23447908 0.86774701 0.24967958
0.35322315 0.84572190 0.21646886
0.48962861 0.82621098 0.19551863
0.64369571 0.80921429 0.18682882
0.81542414 0.79473174 0.19039954
0.08998401 0.09000117 0.48044303
0.32064041 0.10183617 0.49612838
0.56895822 0.11618538 0.52407420
0.83493763 0.13304876 0.56428045
1.00000000 0.15242635 0.61674714
0.20987962 0.40882212 0.60952115
0.41133636 0.41081858 0.61096358
0.63045460 0.41532928 0.62466651
0.86723423 0.42235416 0.65062988
1.00000000 0.43189320 0.68885374
0.28459603 0.65823048 0.66492450
0.45685303 0.65038848 0.65212405
0.64677155 0.64506060 0.65158415
0.85435176 0.64224690 0.66330469
1.00000000 0.64194745 0.68728566
0.31413320 0.83822644 0.64665323
0.45719051 0.82054585 0.61960995
0.61790943 0.80537951 0.60482711
0.79628980 0.79272711 0.60230482
0.99233168 0.78258926 0.61204278
0.29849115 0.94880939 0.55470723
0.41234881 0.92129034 0.51342118
0.54386806 0.89628541 0.48439541
0.69304889 0.87379479 0.46763027
0.85989100 0.85381836 0.46312547
0.11692311 0.10676037 0.67013639
0.34269321 0.11310142 0.67774630
0.58612478 0.12195668 0.69761664
0.84721780 0.13332610 0.72974741
1.00000000 0.14720973 0.77413875
0.24883978 0.44240195 0.82597500
0.44541019 0.43890449 0.81934202
0.65964210 0.43792120 0.82496947
0.89153546 0.43945211 0.84285742
1.00000000 0.44349724 0.87300587
0.33557719 0.70863092 0.90813905
0.50294799 0.69529492 0.88726318
0.68798018 0.68447310 0.87864780
0.89067394 0.67616558 0.88229287
1.00000000 0.67037213 0.89819837
0.37713546 0.90544736 0.91662836
0.51530647 0.88227284 0.88150954
0.67113906 0.86161256 0.85865128
0.84463298 0.84346634 0.84805346
1.00000000 0.82783443 0.84971613
0.37351444 1.00000000 0.85144293
0.48248583 0.99983805 0.80208135
0.60911870 0.96933919 0.76498014
0.75341314 0.94135463 0.74013954
0.91536885 0.91588414 0.72755933
0.15487346 0.12649879 0.85153764
0.37575719 0.12734587 0.85107207
0.61430246 0.13070717 0.86286694
0.87050915 0.13658264 0.88692230
1.00000000 0.14497231 0.92323816
0.29881120 0.47896093 1.00000000
0.49049526 0.46996954 1.00000000
0.69984090 0.46349230 1.00000000
0.92684782 0.45952934 1.00000000
1.00000000 0.45808053 1.00000000
0.39756963 0.76201057 1.00000000
0.56005406 0.74318063 1.00000000
0.74019998 0.72686493 1.00000000
0.93800735 0.71306336 1.00000000
1.00000000 0.70177591 1.00000000
0.45114890 0.96249998 1.00000000
0.58443367 0.94697917 1.00000000
0.73537987 0.92082494 1.00000000
0.90398753 0.89718473 1.00000000
1.00000000 0.87605894 1.00000000
0.45954898 1.00000000 1.00000000
0.56363404 1.00000000 1.00000000
0.68538052 1.00000000 1.00000000
0.82478863 1.00000000 1.00000000
0.98185807 0.98092926 0.98370111
